X: 513
T: Mai bianshi
%%abc-version 2.0
%%abcx-abcm2ps-target-version 5.9.1 (29 Sep 2008)
%%abc-creator hum2abc beta
%%abcx-conversion-date 2013/10/02 07:52:30
%%abc-edited-by Helmut Schaffrath
%%humdrum-veritas 543145717
%%humdrum-veritas-data 3258355389
%%continueall 1
%%barnumbers 0
L: 1/16
M: 2/4
K: A
a2> c'2e4 [I:setbarnb 1]| 
a2 c' ba4 | 
c'2> b2 c'3 b | 
f e B ce4 | 
e2 e f b2 b2 | 
f2 g f e2 c2 | 
e c e f b2 b2 | 
f e f ae4 | 
a b e' ba4 | 
e c e f b2 b2 | 
f e f ae4 |]  



